packages/core/src/svgs/ixs.svg

<svg width="24" height="24" viewBox="0 0 24 24" fill="none" xmlns="http://www.w3.org/2000/svg">
<g clip-path="url(#clip0_31_11953)">
<path d="M0 0H24V24H0V0Z" fill="url(#paint0_linear_31_11953)"/>
<path d="M9.53994 8.47718C11.1342 8.11289 13.1657 8.13432 14.8114 8.56289C14.9999 8.60575 15.1757 8.66147 15.3471 8.71718C15.9814 8.93147 16.4828 9.18861 16.8642 9.77147L16.8214 9.68575L16.7528 9.56147C15.8014 8.04861 11.8971 7.71861 10.3285 7.79147C11.6957 7.46575 13.3285 7.43147 14.3485 7.74432C14.0999 7.60289 13.2985 7.22147 12.6857 6.81861C12.1157 6.44147 11.8114 5.95718 12.5785 5.39575C13.9499 4.39718 11.6485 4.53004 10.7785 4.63289C11.8457 4.37575 12.6214 4.34147 13.2642 4.43147C11.7728 4.08861 10.2642 4.36289 9.15851 5.06147C8.2028 5.66575 7.47423 6.67289 7.35851 7.45289C7.32423 7.66718 7.8428 7.45718 7.80851 7.66718C7.75708 7.95004 7.3628 8.79004 7.54708 8.68289C8.10495 8.39608 8.72411 8.24901 9.35137 8.25432C9.21423 8.29289 9.08137 8.33147 8.95708 8.37861C8.16423 8.65718 7.49994 9.00004 7.04565 9.71147C7.68851 8.89289 8.5628 8.69575 9.53994 8.47718Z" fill="white"/>
<path d="M15.9944 9.48411C14.0229 8.04839 9.30864 8.14268 7.6115 9.84839C9.18435 8.49839 14.1472 8.39125 15.9944 9.48411ZM7.83007 16.2727C7.99721 16.5127 8.1815 16.7612 8.21578 16.8041C7.78721 16.4784 7.35435 15.9041 7.05435 15.4627C7.23007 15.8355 7.42721 16.1741 7.69721 16.5898C7.40566 16.3564 7.14627 16.0855 6.92578 15.7841C7.08864 16.5555 8.9615 18.8055 9.99864 19.0584C9.75007 18.6384 9.98578 18.0941 10.5001 18.1627C11.0786 18.2398 11.0401 19.0198 10.5772 19.1827C10.9286 19.2384 11.3101 19.2727 11.7044 19.2855C11.5682 19.2628 11.4336 19.2313 11.3015 19.1912C10.9629 19.0841 11.3486 19.1741 11.2586 18.7455C11.0915 18.2227 11.3572 18.4112 12.0386 18.3084C12.2958 18.2698 12.6086 18.2012 12.8958 18.1327C10.2301 18.2184 9.49721 18.1412 7.83007 16.2727ZM9.88721 18.9041C9.63864 18.6127 9.86578 18.1327 10.2772 18.1455C9.93435 18.1927 9.75864 18.5827 9.8915 18.9041H9.88721ZM10.6801 19.1698C11.0701 19.0412 11.0872 18.4327 10.8086 18.2355C11.1772 18.3984 11.1515 19.1398 10.6801 19.1698Z" fill="white"/>
<path d="M10.8473 18.6985C10.8473 18.4499 10.6501 18.2528 10.4101 18.2528C10.1701 18.2528 9.97297 18.4499 9.97297 18.6985C9.97297 18.9428 10.1701 19.1399 10.4101 19.1399C10.6501 19.1399 10.8473 18.9428 10.8473 18.6985ZM10.1487 18.9642C10.0783 18.8928 10.0388 18.7966 10.0388 18.6964C10.0388 18.5961 10.0783 18.4999 10.1487 18.4285C10.1829 18.394 10.2237 18.3667 10.2685 18.348C10.3134 18.3294 10.3615 18.3197 10.4101 18.3197C10.4587 18.3197 10.5068 18.3294 10.5517 18.348C10.5966 18.3667 10.6373 18.394 10.6715 18.4285C10.8173 18.5785 10.8173 18.8142 10.6715 18.9642C10.6373 18.9987 10.5966 19.026 10.5517 19.0447C10.5068 19.0634 10.4587 19.073 10.4101 19.073C10.3615 19.073 10.3134 19.0634 10.2685 19.0447C10.2237 19.026 10.1829 18.9987 10.1487 18.9642ZM12.2573 17.4299C11.1687 17.3785 10.0715 17.0699 9.56583 16.7014C10.0458 16.8085 10.5558 16.8728 11.0787 16.8856C9.54869 16.7356 8.50726 16.1314 7.82154 15.2185C7.92869 15.3942 8.04869 15.5742 8.19012 15.7585C7.66038 15.3291 7.28684 14.7372 7.12726 14.0742C7.05869 14.2199 7.1144 14.3999 7.09726 14.5499C7.08869 14.6314 7.03726 14.7299 7.03726 14.8071C7.02869 15.1114 7.39297 15.5356 7.69297 15.8442L7.84297 15.9985L7.97583 16.1314C8.84154 16.9885 9.7844 17.9871 11.0487 17.8156C10.6722 17.7062 10.314 17.5415 9.98583 17.3271C10.5944 17.4385 11.9701 17.4556 12.2573 17.4299Z" fill="white"/>
<path d="M9.34297 16.0886C10.0887 16.4443 11.323 16.6286 11.8501 16.5986C11.0077 16.5299 10.1823 16.3229 9.40726 15.9857C8.80901 15.702 8.30585 15.2509 7.95869 14.6871C8.34744 15.1624 8.82671 15.5557 9.36869 15.8443C10.1418 16.2386 10.9952 16.4498 11.863 16.4614C15.9001 16.5043 17.8887 13.3414 16.8644 9.76714C17.7258 13.5171 15.613 16.2686 11.8673 16.1957C8.08297 16.1314 6.55297 13.26 7.04583 9.71143C6.6344 11.3743 6.8144 13.38 7.82583 14.79C8.21349 15.3459 8.73735 15.793 9.34726 16.0886H9.34297ZM14.2544 17.6271C14.5368 17.466 14.7915 17.2605 15.0087 17.0186C15.0087 17.0186 14.6658 17.3357 14.2115 17.5457C13.9758 17.6529 13.7015 17.7171 13.4615 17.73C13.4615 17.73 13.9373 17.76 14.2544 17.6271ZM10.4744 18.3943C10.4096 18.3853 10.3436 18.3946 10.2838 18.4211C10.2239 18.4476 10.1727 18.4902 10.1358 18.5443C10.543 18.2529 10.7101 18.6857 10.7101 18.6857C10.7101 18.6857 10.7015 18.4286 10.4744 18.3943ZM13.6758 18.3129C13.3073 18.5571 13.453 19.2129 13.9115 19.2343C13.5215 19.1357 13.3973 18.5829 13.6758 18.3129Z" fill="white"/>
<path d="M13.7829 18.7155C13.7829 18.7155 13.9457 18.1755 14.4214 18.5527C14.2286 18.2441 13.8 18.3384 13.7786 18.7155H13.7829ZM14.3571 18.1713C14.6057 18.2527 14.7343 18.6384 14.6186 18.8698C14.8157 18.6427 14.6743 18.1884 14.3571 18.167V18.1713ZM14.7257 18.9084C15.3514 18.8527 16.3714 17.2155 16.4657 17.0313C16.17 17.5113 15.24 18.6341 14.7257 18.9084ZM15.8786 15.5698C15.2445 16.1945 14.4466 16.6268 13.5771 16.817C14.4129 16.7441 15.4629 16.2684 15.8786 15.5698Z" fill="white"/>
<path d="M16.4229 16.08L16.4486 16.0543C16.1358 16.4615 15.6129 17.1129 15.1458 17.5715C14.9829 17.7257 14.5929 18.0429 13.7615 18.1286C14.0486 18.1072 14.6229 17.9915 14.7472 18.33C14.8072 18.4843 14.79 18.69 14.79 18.69C14.8758 18.4972 14.8586 18.39 14.8329 18.27C14.7772 17.9872 14.8586 18.0129 15.1029 17.7472C15.6034 17.2126 16.0592 16.6378 16.4658 16.0286L17.0015 15.3686C17.0015 15.3686 17.1515 15.7415 17.1 15.9257C17.0486 16.1143 16.4786 17.01 16.4786 17.01C16.4786 17.01 17.2158 16.0672 17.22 15.7843C17.22 15.5057 17.0872 15.0772 17.0872 15.0772L16.4229 16.08ZM16.4358 15.6686C16.4358 15.6686 17.0315 14.94 17.0358 14.8243C17.04 14.7129 16.9715 14.5929 16.9072 14.4515L16.8858 14.37C16.7872 14.0529 16.8343 13.9072 16.8343 13.9072C16.71 14.0443 16.8215 14.5157 16.9072 14.6572C16.9329 14.7215 16.95 14.7815 16.9329 14.8286C16.8815 14.9743 16.4358 15.6686 16.4358 15.6686ZM17.5115 11.7086C17.5552 11.2194 17.4802 10.7269 17.2929 10.2729C17.3786 10.5472 17.4643 11.55 17.3786 11.8329C17.9529 11.7772 17.9186 11.3829 17.9186 10.9672C17.8929 11.4729 17.7343 11.6272 17.5115 11.7086ZM17.7858 10.2557C17.8078 10.2338 17.8253 10.2078 17.8372 10.1791C17.8491 10.1504 17.8553 10.1197 17.8553 10.0886C17.8553 10.0575 17.8491 10.0268 17.8372 9.99809C17.8253 9.9694 17.8078 9.94336 17.7858 9.92146C17.7642 9.8989 17.7382 9.88095 17.7095 9.86868C17.6808 9.85642 17.6499 9.8501 17.6186 9.8501C17.5874 9.8501 17.5565 9.85642 17.5277 9.86868C17.499 9.88095 17.4731 9.8989 17.4515 9.92146C17.4294 9.94336 17.412 9.9694 17.4 9.99809C17.3881 10.0268 17.382 10.0575 17.382 10.0886C17.382 10.1197 17.3881 10.1504 17.4 10.1791C17.412 10.2078 17.4294 10.2338 17.4515 10.2557C17.473 10.2776 17.4987 10.295 17.527 10.3069C17.5554 10.3188 17.5858 10.3249 17.6165 10.3249C17.6472 10.3249 17.6776 10.3188 17.7059 10.3069C17.7343 10.295 17.7599 10.2776 17.7815 10.2557H17.7858ZM17.5029 10.0886C17.5029 10.0543 17.5158 10.0243 17.5372 10.0029C17.5589 9.98142 17.5881 9.96938 17.6186 9.96938C17.6491 9.96938 17.6784 9.98142 17.7 10.0029C17.7215 10.0243 17.7343 10.0543 17.7343 10.0886C17.7343 10.1229 17.7215 10.1529 17.7 10.1743C17.6784 10.1958 17.6491 10.2078 17.6186 10.2078C17.5881 10.2078 17.5589 10.1958 17.5372 10.1743C17.5261 10.163 17.5174 10.1496 17.5115 10.1349C17.5056 10.1202 17.5027 10.1044 17.5029 10.0886Z" fill="white"/>
<path d="M17.9058 9.29562C17.82 8.99562 17.5629 8.78562 17.2458 8.92276C17.4686 8.89705 17.7172 9.08562 17.8029 9.33419C17.9486 9.74562 17.9615 10.3413 17.97 10.5513C18.0272 10.1324 18.0054 9.7065 17.9058 9.29562ZM6.74147 8.80705C6.23576 8.77705 6.17147 9.03419 6.08147 9.52276C6.00005 9.96847 5.88862 11.417 6.2529 11.7342C6.39005 11.8628 6.54005 11.8628 6.70719 11.8585C6.52719 11.6828 6.47576 11.3742 6.40719 11.1299L6.4329 11.4728C6.28719 11.2456 6.20576 10.607 6.39862 10.3842C6.49719 10.2642 6.60005 10.2556 6.60433 10.0585C6.60433 9.88276 6.44147 9.71133 6.30005 9.76276C6.25719 9.7799 6.24005 9.66848 6.25719 9.51419C6.3429 8.91848 6.53576 8.88419 6.74147 8.80705ZM6.33862 9.81848C6.4029 9.81848 6.4629 9.84419 6.50576 9.88705C6.52844 9.90902 6.54647 9.93533 6.55879 9.96441C6.5711 9.99349 6.57745 10.0248 6.57745 10.0563C6.57745 10.0879 6.5711 10.1192 6.55879 10.1483C6.54647 10.1773 6.52844 10.2036 6.50576 10.2256C6.48422 10.2475 6.45854 10.2649 6.43021 10.2768C6.40188 10.2887 6.37148 10.2948 6.34076 10.2948C6.31004 10.2948 6.27964 10.2887 6.25131 10.2768C6.22298 10.2649 6.1973 10.2475 6.17576 10.2256C6.15308 10.2036 6.13505 10.1773 6.12273 10.1483C6.11041 10.1192 6.10407 10.0879 6.10407 10.0563C6.10407 10.0248 6.11041 9.99349 6.12273 9.96441C6.13505 9.93533 6.15308 9.90902 6.17576 9.88705C6.21862 9.84419 6.27433 9.81848 6.33862 9.81848Z" fill="white"/>
<path d="M6.34294 10.1741C6.35814 10.1735 6.37308 10.17 6.38691 10.1637C6.40073 10.1573 6.41318 10.1483 6.42353 10.1372C6.43388 10.126 6.44193 10.113 6.44722 10.0987C6.45251 10.0844 6.45494 10.0693 6.45437 10.0541C6.45508 10.0309 6.44883 10.0081 6.43644 9.98858C6.42404 9.96903 6.40607 9.95364 6.38484 9.94441C6.36361 9.93518 6.34011 9.93253 6.31736 9.9368C6.2946 9.94107 6.27366 9.95207 6.25722 9.96837C6.24009 9.98516 6.22837 10.0067 6.22359 10.0302C6.21882 10.0537 6.2212 10.0781 6.23042 10.1003C6.23965 10.1224 6.2553 10.1413 6.27536 10.1544C6.29541 10.1676 6.31895 10.1744 6.34294 10.1741ZM6.90865 9.5698C6.98151 8.93551 7.28579 8.0998 7.47008 7.7998C6.99008 8.10408 6.87008 9.20551 6.90865 9.5698ZM16.6929 7.93694C16.5429 6.62123 15.2229 5.08266 13.7701 4.72266C14.9915 5.14266 16.2301 6.66408 16.6929 7.93694ZM14.1044 18.2569C13.8644 18.2569 13.6672 18.4498 13.6672 18.6984C13.6672 18.9427 13.8644 19.1398 14.1044 19.1398C14.3444 19.1398 14.5415 18.9427 14.5415 18.6984C14.5415 18.4498 14.3444 18.2527 14.1044 18.2527V18.2569ZM14.3658 18.9641C14.3315 18.9986 14.2908 19.0259 14.2459 19.0446C14.2011 19.0632 14.153 19.0728 14.1044 19.0728C14.0558 19.0728 14.0077 19.0632 13.9628 19.0446C13.9179 19.0259 13.8772 18.9986 13.8429 18.9641C13.7725 18.8927 13.7331 18.7965 13.7331 18.6962C13.7331 18.596 13.7725 18.4997 13.8429 18.4284C13.8772 18.3939 13.9179 18.3665 13.9628 18.3479C14.0077 18.3292 14.0558 18.3196 14.1044 18.3196C14.153 18.3196 14.2011 18.3292 14.2459 18.3479C14.2908 18.3665 14.3315 18.3939 14.3658 18.4284C14.5115 18.5784 14.5115 18.8141 14.3658 18.9641ZM13.1401 4.88551C13.1187 5.10837 12.9601 5.28837 12.8015 5.4298C12.1115 6.05123 12.3001 6.38123 13.0587 6.8398L13.9072 7.33266C13.8129 7.23408 13.3801 6.93408 13.1315 6.74123C12.5315 6.27837 12.3815 6.12837 12.9087 5.53694C13.0544 5.37408 13.2515 5.10837 13.1401 4.88551Z" fill="white"/>
<path d="M15.33 6.07302L15.3257 6.06874L15.3214 6.06017C15.1241 5.82946 14.8929 5.63005 14.6357 5.46874C14.6271 5.46445 14.5714 5.43017 14.5628 5.43445C14.5628 5.44302 14.6185 5.48588 14.6228 5.49017C14.8585 5.67874 15.0557 5.89302 15.2528 6.12017L15.2571 6.12445L15.2614 6.13302L15.2742 6.14588C15.492 6.38267 15.6925 6.63474 15.8742 6.90017C15.8828 6.89588 15.8528 6.84017 15.8528 6.83159C15.713 6.55663 15.5372 6.30153 15.33 6.07302ZM9.69425 15.3859C11.5285 16.2216 13.5942 15.6516 14.1 15.3602C12.9257 15.6516 11.8028 15.6687 10.8814 15.493L10.8728 15.4802V15.493C10.4785 15.4159 10.1185 15.3087 9.80996 15.1673C8.07853 14.3873 7.31568 12.4159 7.28568 10.5816C7.16139 12.4973 7.85996 14.5502 9.69425 15.3816V15.3859Z" fill="white"/>
<path d="M8.65705 13.7058C8.39563 13.4744 8.11705 12.8616 7.92848 12.2058C7.77772 11.6769 7.68009 11.1342 7.63705 10.5858C7.54277 11.3444 7.90277 13.213 8.66134 13.7058H8.65705ZM16.4442 10.1016C16.7185 10.9801 16.6156 12.6258 16.2213 13.453C16.8128 12.673 16.9242 10.9587 16.4442 10.1016ZM14.2585 11.0487C14.2628 11.0316 14.2585 11.0144 14.2371 11.0058C14.2242 11.0058 14.2071 11.0187 14.2028 11.0401C14.2028 11.0573 14.2113 11.0744 14.2242 11.0787C14.2413 11.0787 14.2585 11.0701 14.2628 11.0487H14.2585Z" fill="white"/>
<path d="M9.11567 14.2285C8.92282 14.0613 8.73853 13.8685 8.57139 13.6456L8.42139 10.667C8.5971 10.4356 8.78996 10.2342 8.99139 10.0585L9.11996 14.2285H9.11567ZM12.7842 9.31276C12.5038 9.82296 12.2422 10.3433 12 10.8728L11.7857 11.3442C11.6797 11.5718 11.5696 11.7976 11.4557 12.0213C11.527 12.1368 11.5873 12.2588 11.6357 12.3856L11.7985 12.7542L12.0471 13.307C12.3085 13.8856 12.5657 14.4385 12.8185 14.9313C12.4714 15.0256 12.12 15.0856 11.7685 15.1028C11.4942 14.4599 11.22 13.7828 10.9457 13.1228C10.6997 13.7082 10.4381 14.2869 10.1614 14.8585C9.87509 14.7481 9.60427 14.6012 9.35567 14.4213C9.56139 14.1213 9.77996 13.6928 10.0071 13.1999L10.2128 12.7499L10.3542 12.437C10.4066 12.3226 10.4624 12.2097 10.5214 12.0985C10.5 12.0556 10.4785 12.0128 10.4485 11.9699C10.4134 11.9039 10.3805 11.8367 10.35 11.7685L10.2 11.4556L9.97282 10.9928C9.7371 10.5213 9.50139 10.1228 9.28282 9.83133C9.57853 9.61705 9.89567 9.45847 10.2257 9.34704C10.4828 9.8399 10.74 10.4099 11.0014 11.0099C11.2585 10.3842 11.5157 9.7499 11.7814 9.1499C12.1157 9.16705 12.4542 9.22276 12.7842 9.31276ZM15.1842 11.8585C15.4285 11.9099 15.5957 12.0085 15.6985 12.107C15.8057 12.2056 15.8485 12.2913 15.8314 12.4242C15.8271 12.497 15.8057 12.5699 15.7757 12.6556C15.7414 12.7413 15.69 12.8356 15.63 12.947C15.5657 13.0585 15.4842 13.1828 15.3814 13.3199C15.2713 13.4693 15.1464 13.6072 15.0085 13.7313C14.4082 14.2579 13.7046 14.6534 12.9428 14.8928C13.1014 14.3699 13.2642 13.8642 13.4228 13.3928C13.9923 13.2851 14.5495 13.12 15.0857 12.8999C15.1585 12.8699 15.2142 12.827 15.2442 12.7842C15.2799 12.7341 15.2994 12.6743 15.3 12.6128C15.3 12.5442 15.2871 12.497 15.2571 12.4756C15.2271 12.4499 15.1714 12.4413 15.1028 12.4542C14.7385 12.5142 14.3442 12.5613 13.9285 12.5999C13.7785 12.6128 13.65 12.5913 13.5385 12.527C13.4218 12.4554 13.327 12.3531 13.2642 12.2313C13.1914 12.1028 13.1357 11.9313 13.1014 11.7428C13.0647 11.5305 13.0475 11.3153 13.05 11.0999C13.05 10.8428 13.0757 10.6113 13.1185 10.4142C13.1614 10.2128 13.2214 10.0499 13.3071 9.93419C13.3928 9.81847 13.5 9.7499 13.6328 9.72847C13.7614 9.71133 13.92 9.75419 14.0957 9.85276C14.7685 10.2299 15.3857 10.7528 15.8871 11.3785C15.7585 11.3699 15.63 11.4428 15.4928 11.5885C15.024 11.35 14.5313 11.1618 14.0228 11.027C13.9371 11.0056 13.8771 11.0099 13.8342 11.0528C13.7914 11.0913 13.77 11.1728 13.77 11.3013C13.77 11.4299 13.7871 11.5156 13.8257 11.5756C13.8685 11.6313 13.9285 11.6613 14.01 11.6742C14.4257 11.7213 14.8242 11.7856 15.1842 11.8585Z" fill="white"/>
</g>
<defs>
<linearGradient id="paint0_linear_31_11953" x1="4.46571" y1="4.16143" x2="29.2071" y2="32.58" gradientUnits="userSpaceOnUse">
<stop stop-color="#1A1E21"/>
<stop offset="1" stop-color="#06060A"/>
</linearGradient>
<clipPath id="clip0_31_11953">
<rect width="24" height="24" fill="white"/>
</clipPath>
</defs>
</svg>

<svg xmlns="http://www.w3.org/2000/svg" width="24" height="24" fill="none" viewBox="0 0 24 24"><g clip-path="url(#a)"><path fill="url(#b)" d="M0 0h24v24H0z"/><path fill="#fff" d="M9.54 8.477c1.594-.364 3.626-.343 5.271.086.189.043.365.098.536.154.634.214 1.136.472 1.517 1.054l-.043-.085-.068-.125c-.952-1.512-4.856-1.842-6.424-1.77 1.367-.325 3-.36 4.02-.047-.25-.141-1.05-.523-1.663-.925-.57-.378-.875-.862-.107-1.423 1.37-.999-.93-.866-1.8-.763 1.067-.257 1.842-.292 2.485-.202-1.491-.342-3-.068-4.105.63-.956.605-1.685 1.612-1.8 2.392-.035.214.484.004.45.214-.052.283-.446 1.123-.262 1.016a3.9 3.9 0 0 1 1.804-.429c-.137.039-.27.077-.394.125C8.164 8.657 7.5 9 7.046 9.71c.643-.818 1.517-1.015 2.494-1.234"/><path fill="#fff" d="M15.994 9.484c-1.971-1.436-6.685-1.341-8.382.364 1.572-1.35 6.535-1.457 8.382-.364M7.83 16.273c.167.24.351.488.386.531-.429-.326-.862-.9-1.162-1.341.176.373.373.711.643 1.127a4.2 4.2 0 0 1-.771-.806c.163.771 2.035 3.021 3.073 3.274-.249-.42-.013-.964.501-.895.579.077.54.857.077 1.02.352.055.733.09 1.127.102a3 3 0 0 1-.402-.094c-.34-.107.047-.017-.043-.445-.168-.523.098-.335.78-.438.257-.038.57-.107.857-.175-2.666.085-3.399.008-5.066-1.86m2.057 2.631c-.248-.291-.021-.771.39-.759-.343.048-.518.438-.385.76zm.793.266c.39-.129.407-.737.129-.935.368.163.343.905-.129.935"/><path fill="#fff" d="M10.847 18.699a.44.44 0 0 0-.437-.446.44.44 0 0 0-.437.445.44.44 0 0 0 .437.442.44.44 0 0 0 .437-.442m-.698.265a.38.38 0 0 1 .12-.616.37.37 0 0 1 .402.08.383.383 0 0 1 0 .536.367.367 0 0 1-.522 0m2.108-1.534c-1.088-.052-2.185-.36-2.691-.729.48.107.99.172 1.513.185-1.53-.15-2.572-.755-3.257-1.667.107.175.227.355.368.54a3.1 3.1 0 0 1-1.063-1.685c-.068.146-.013.326-.03.476-.008.081-.06.18-.06.257-.008.304.356.729.656 1.037l.15.155.133.132c.866.857 1.808 1.856 3.073 1.685a4 4 0 0 1-1.063-.489c.608.111 1.984.129 2.271.103"/><path fill="#fff" d="M9.343 16.089c.746.355 1.98.54 2.507.51a7.7 7.7 0 0 1-2.443-.613 3.42 3.42 0 0 1-1.448-1.299c.388.475.868.869 1.41 1.157a5.66 5.66 0 0 0 2.494.617c4.037.043 6.026-3.12 5.001-6.694.862 3.75-1.251 6.502-4.997 6.429-3.784-.065-5.314-2.936-4.821-6.485-.412 1.663-.232 3.669.78 5.079a3.96 3.96 0 0 0 1.521 1.299zm4.911 1.538q.426-.243.755-.608s-.343.317-.798.527c-.235.107-.51.171-.75.184 0 0 .476.03.793-.103m-3.78.767a.35.35 0 0 0-.338.15c.407-.291.574.142.574.142s-.009-.257-.236-.292m3.202-.081c-.369.244-.223.9.236.921-.39-.098-.515-.651-.236-.921"/><path fill="#fff" d="M13.783 18.716s.163-.54.638-.163c-.192-.309-.621-.215-.642.162zm.574-.545c.249.082.377.467.262.699.197-.227.055-.682-.262-.703zm.369.737c.625-.055 1.645-1.693 1.74-1.877-.296.48-1.226 1.603-1.74 1.877m1.153-3.338a4.7 4.7 0 0 1-2.302 1.247c.836-.073 1.886-.549 2.302-1.247"/><path fill="#fff" d="m16.423 16.08.026-.026c-.313.408-.836 1.059-1.303 1.518-.163.154-.553.47-1.385.557.288-.022.862-.138.986.201.06.154.043.36.043.36a.58.58 0 0 0 .043-.42c-.056-.283.026-.257.27-.523.5-.534.956-1.11 1.363-1.718l.535-.66s.15.373.099.557c-.051.188-.621 1.084-.621 1.084s.737-.943.741-1.226c0-.278-.133-.707-.133-.707zm.013-.411s.596-.729.6-.845c.004-.111-.065-.231-.129-.373l-.021-.081c-.099-.317-.052-.463-.052-.463-.124.137-.012.609.073.75.026.065.043.124.026.172-.052.145-.497.84-.497.84m1.076-3.96a3.05 3.05 0 0 0-.22-1.436c.087.274.172 1.277.087 1.56.574-.056.54-.45.54-.866-.026.506-.185.66-.407.742m.274-1.453a.235.235 0 0 0 0-.335.23.23 0 0 0-.335 0 .236.236 0 0 0 .255.386.2.2 0 0 0 .076-.051zm-.283-.167a.116.116 0 1 1 .231 0 .115.115 0 1 1-.231 0"/><path fill="#fff" d="M17.906 9.296c-.086-.3-.343-.51-.66-.373.223-.026.471.163.557.411.146.412.159 1.007.167 1.217a3.4 3.4 0 0 0-.064-1.255M6.74 8.807c-.505-.03-.57.227-.66.716-.081.445-.192 1.894.172 2.211.137.129.287.129.454.124-.18-.175-.231-.484-.3-.728l.026.343c-.146-.227-.227-.866-.034-1.089.098-.12.201-.128.205-.325 0-.176-.163-.348-.304-.296-.043.017-.06-.095-.043-.249.086-.596.279-.63.484-.707M6.34 9.818a.24.24 0 0 1 .22.146.24.24 0 0 1-.053.262.23.23 0 0 1-.33 0 .237.237 0 0 1 .163-.408"/><path fill="#fff" d="M6.343 10.174a.12.12 0 0 0 .08-.037.12.12 0 0 0 .031-.083.116.116 0 0 0-.197-.086.12.12 0 0 0 .086.206m.566-.604c.073-.634.377-1.47.561-1.77-.48.304-.6 1.406-.561 1.77m9.784-1.633c-.15-1.316-1.47-2.854-2.923-3.214 1.222.42 2.46 1.941 2.923 3.214m-2.589 10.32a.437.437 0 0 0-.437.441.44.44 0 0 0 .437.442.44.44 0 0 0 .438-.442.44.44 0 0 0-.438-.445zm.262.707a.37.37 0 0 1-.523 0 .38.38 0 0 1 .12-.616.37.37 0 0 1 .403.08.383.383 0 0 1 0 .536M13.14 4.886c-.021.222-.18.402-.338.544-.69.621-.502.951.257 1.41l.848.493c-.094-.099-.527-.399-.775-.592-.6-.463-.75-.613-.223-1.204.145-.163.342-.429.231-.651"/><path fill="#fff" d="m15.33 6.073-.004-.004-.005-.009a3 3 0 0 0-.685-.591c-.009-.005-.065-.039-.073-.035 0 .009.055.052.06.056.236.189.433.403.63.63l.004.004.004.009.013.013q.328.356.6.754c.009-.004-.021-.06-.021-.068a3.5 3.5 0 0 0-.523-.759m-5.636 9.313c1.834.836 3.9.266 4.406-.026-1.174.292-2.297.309-3.219.133l-.008-.013v.013a4.8 4.8 0 0 1-1.063-.326c-1.731-.78-2.494-2.751-2.524-4.585-.125 1.915.574 3.968 2.408 4.8z"/><path fill="#fff" d="M8.657 13.706c-.261-.232-.54-.844-.729-1.5a8.3 8.3 0 0 1-.29-1.62c-.095.758.265 2.627 1.023 3.12zm7.787-3.604c.274.878.172 2.524-.223 3.351.592-.78.703-2.494.223-3.351m-2.185.947c.004-.017 0-.035-.022-.043-.013 0-.03.013-.034.034 0 .017.008.034.021.039.017 0 .034-.009.039-.03z"/><path fill="#fff" d="M9.116 14.229a3.7 3.7 0 0 1-.545-.583l-.15-2.979c.176-.231.369-.433.57-.608l.129 4.17zm3.668-4.916q-.42.765-.784 1.56l-.214.471q-.159.342-.33.677.107.174.18.365l.163.368.248.553c.261.579.519 1.131.771 1.624a5 5 0 0 1-1.05.172c-.274-.643-.548-1.32-.822-1.98a36 36 0 0 1-.785 1.736 3.6 3.6 0 0 1-.805-.438c.205-.3.424-.728.651-1.221l.206-.45.141-.313a7 7 0 0 1 .167-.338 1 1 0 0 0-.073-.13 3 3 0 0 1-.098-.2l-.15-.313-.227-.463a8 8 0 0 0-.69-1.162c.296-.214.613-.373.943-.484.257.493.514 1.063.775 1.663.258-.626.515-1.26.78-1.86.335.017.673.073 1.003.163m2.4 2.545c.245.052.412.15.515.249.107.099.15.184.132.317a.9.9 0 0 1-.055.232q-.054.126-.146.291a4 4 0 0 1-.249.373q-.165.225-.373.411c-.6.527-1.303.922-2.065 1.162a53 53 0 0 1 .48-1.5 8.6 8.6 0 0 0 1.663-.493.36.36 0 0 0 .158-.116.3.3 0 0 0 .056-.171q.001-.104-.043-.137c-.03-.026-.086-.035-.154-.022-.364.06-.759.107-1.174.146a.65.65 0 0 1-.39-.073.75.75 0 0 1-.275-.296 1.6 1.6 0 0 1-.163-.488 3.5 3.5 0 0 1-.051-.643c0-.257.026-.489.068-.686.043-.201.103-.364.19-.48a.5.5 0 0 1 .325-.206c.128-.017.287.026.463.125a6.2 6.2 0 0 1 1.791 1.526c-.129-.01-.257.064-.394.21a7.5 7.5 0 0 0-1.47-.562c-.086-.021-.146-.017-.189.026q-.064.057-.064.248c0 .129.017.215.056.275a.27.27 0 0 0 .184.098c.416.047.814.112 1.174.184"/></g><defs><linearGradient id="b" x1="4.466" x2="29.207" y1="4.161" y2="32.58" gradientUnits="userSpaceOnUse"><stop stop-color="#1A1E21"/><stop offset="1" stop-color="#06060A"/></linearGradient><clipPath id="a"><path fill="#fff" d="M0 0h24v24H0z"/></clipPath></defs></svg>
